public/assets/images/brand/17.svg

<svg width="82" height="25" viewBox="0 0 82 25" fill="none" xmlns="http://www.w3.org/2000/svg">
<g clip-path="url(#clip0_1509_29020)">
<path fill-rule="evenodd" clip-rule="evenodd" d="M50.8716 19.5497C46.1064 23.1031 39.1996 24.9989 33.253 24.9989C24.9148 24.9989 17.4084 21.8789 11.7294 16.6897C11.2833 16.2816 11.683 15.7255 12.2185 16.0433C18.3471 19.6508 25.925 21.8211 33.7527 21.8211C39.0318 21.8211 44.8393 20.7161 50.1791 18.423C50.9858 18.0764 51.6604 18.9575 50.8716 19.5497Z" fill="#BCBFDB"/>
<path fill-rule="evenodd" clip-rule="evenodd" d="M50.8716 19.5497C46.1064 23.1031 39.1996 24.9989 33.253 24.9989C24.9148 24.9989 17.4084 21.8789 11.7294 16.6897C11.2833 16.2816 11.683 15.7255 12.2185 16.0433C18.3471 19.6508 25.925 21.8211 33.7527 21.8211C39.0318 21.8211 44.8393 20.7161 50.1791 18.423C50.9858 18.0764 51.6604 18.9575 50.8716 19.5497Z" fill="black" fill-opacity="0.4"/>
<path fill-rule="evenodd" clip-rule="evenodd" d="M52.8526 17.2565C52.2458 16.4693 48.8263 16.8846 47.2915 17.0688C46.8239 17.1265 46.7525 16.7149 47.1737 16.4188C49.8971 14.4796 54.366 15.0393 54.8872 15.6893C55.4083 16.3429 54.7515 20.8749 52.1923 23.038C51.7996 23.3702 51.4248 23.1933 51.5997 22.7527C52.1744 21.301 53.463 18.0474 52.8526 17.2565Z" fill="#BCBFDB"/>
<path fill-rule="evenodd" clip-rule="evenodd" d="M52.8526 17.2565C52.2458 16.4693 48.8263 16.8846 47.2915 17.0688C46.8239 17.1265 46.7525 16.7149 47.1737 16.4188C49.8971 14.4796 54.366 15.0393 54.8872 15.6893C55.4083 16.3429 54.7515 20.8749 52.1923 23.038C51.7996 23.3702 51.4248 23.1933 51.5997 22.7527C52.1744 21.301 53.463 18.0474 52.8526 17.2565Z" fill="black" fill-opacity="0.4"/>
<path fill-rule="evenodd" clip-rule="evenodd" d="M47.3986 2.72888V0.843861C47.3986 0.55858 47.6127 0.367188 47.8697 0.367188H56.2114C56.4791 0.367188 56.6933 0.562191 56.6933 0.843861V2.45805C56.6897 2.72888 56.4649 3.08277 56.0651 3.6425L51.7425 9.88618C53.3488 9.84646 55.0442 10.0884 56.5006 10.919C56.8289 11.1068 56.9182 11.3812 56.9432 11.652V13.6635C56.9432 13.9379 56.6433 14.2593 56.3292 14.0932C53.7628 12.7318 50.354 12.5837 47.5163 14.1076C47.2272 14.2665 46.9238 13.9487 46.9238 13.6743V11.764C46.9238 11.457 46.9274 10.9334 47.2308 10.4676L52.2387 3.20195H47.8804C47.6127 3.20195 47.3986 3.01055 47.3986 2.72888Z" fill="#BCBFDB"/>
<path fill-rule="evenodd" clip-rule="evenodd" d="M47.3986 2.72888V0.843861C47.3986 0.55858 47.6127 0.367188 47.8697 0.367188H56.2114C56.4791 0.367188 56.6933 0.562191 56.6933 0.843861V2.45805C56.6897 2.72888 56.4649 3.08277 56.0651 3.6425L51.7425 9.88618C53.3488 9.84646 55.0442 10.0884 56.5006 10.919C56.8289 11.1068 56.9182 11.3812 56.9432 11.652V13.6635C56.9432 13.9379 56.6433 14.2593 56.3292 14.0932C53.7628 12.7318 50.354 12.5837 47.5163 14.1076C47.2272 14.2665 46.9238 13.9487 46.9238 13.6743V11.764C46.9238 11.457 46.9274 10.9334 47.2308 10.4676L52.2387 3.20195H47.8804C47.6127 3.20195 47.3986 3.01055 47.3986 2.72888Z" fill="black" fill-opacity="0.4"/>
<path fill-rule="evenodd" clip-rule="evenodd" d="M16.9687 14.4902H14.4309C14.1881 14.4721 13.9954 14.2879 13.9775 14.0532V0.876122C13.9775 0.612508 14.1953 0.403064 14.4665 0.403064H16.8331C17.0794 0.413891 17.2757 0.605285 17.2935 0.843621V2.56614H17.3399C17.9574 0.901397 19.1175 0.125 20.6809 0.125C22.2693 0.125 23.2616 0.901397 23.9754 2.56614C24.5894 0.901397 25.985 0.125 27.4806 0.125C28.5443 0.125 29.7079 0.56917 30.4182 1.56585C31.2213 2.67447 31.0572 4.28505 31.0572 5.69701L31.0536 14.0135C31.0536 14.2771 30.8359 14.4902 30.5646 14.4902H28.0303C27.7769 14.4721 27.5734 14.2663 27.5734 14.0135V7.02953C27.5734 6.47341 27.6234 5.08672 27.502 4.55949C27.3128 3.67476 26.7453 3.4256 26.01 3.4256C25.3961 3.4256 24.7536 3.84088 24.493 4.50533C24.2324 5.16979 24.2574 6.28202 24.2574 7.02953V14.0135C24.2574 14.2771 24.0397 14.4902 23.7684 14.4902H21.2341C20.9771 14.4721 20.7773 14.2663 20.7773 14.0135L20.7737 7.02953C20.7737 5.55979 21.0128 3.39671 19.2103 3.39671C17.3863 3.39671 17.4577 5.50562 17.4577 7.02953V14.0135C17.4577 14.2771 17.24 14.4902 16.9687 14.4902Z" fill="#BCBFDB"/>
<path fill-rule="evenodd" clip-rule="evenodd" d="M16.9687 14.4902H14.4309C14.1881 14.4721 13.9954 14.2879 13.9775 14.0532V0.876122C13.9775 0.612508 14.1953 0.403064 14.4665 0.403064H16.8331C17.0794 0.413891 17.2757 0.605285 17.2935 0.843621V2.56614H17.3399C17.9574 0.901397 19.1175 0.125 20.6809 0.125C22.2693 0.125 23.2616 0.901397 23.9754 2.56614C24.5894 0.901397 25.985 0.125 27.4806 0.125C28.5443 0.125 29.7079 0.56917 30.4182 1.56585C31.2213 2.67447 31.0572 4.28505 31.0572 5.69701L31.0536 14.0135C31.0536 14.2771 30.8359 14.4902 30.5646 14.4902H28.0303C27.7769 14.4721 27.5734 14.2663 27.5734 14.0135V7.02953C27.5734 6.47341 27.6234 5.08672 27.502 4.55949C27.3128 3.67476 26.7453 3.4256 26.01 3.4256C25.3961 3.4256 24.7536 3.84088 24.493 4.50533C24.2324 5.16979 24.2574 6.28202 24.2574 7.02953V14.0135C24.2574 14.2771 24.0397 14.4902 23.7684 14.4902H21.2341C20.9771 14.4721 20.7773 14.2663 20.7773 14.0135L20.7737 7.02953C20.7737 5.55979 21.0128 3.39671 19.2103 3.39671C17.3863 3.39671 17.4577 5.50562 17.4577 7.02953V14.0135C17.4577 14.2771 17.24 14.4902 16.9687 14.4902Z" fill="black" fill-opacity="0.4"/>
<path fill-rule="evenodd" clip-rule="evenodd" d="M63.8741 0.125C67.6399 0.125 69.678 3.3967 69.678 7.55675C69.678 11.576 67.4257 14.7646 63.8741 14.7646C60.1762 14.7646 58.1631 11.4929 58.1631 7.41592C58.1631 3.31365 60.2012 0.125 63.8741 0.125ZM63.8956 2.81531C62.0252 2.81531 61.9074 5.39367 61.9074 7.00063C61.9074 8.6112 61.8824 12.049 63.8741 12.049C65.8409 12.049 65.9337 9.27566 65.9337 7.58564C65.9337 6.47341 65.8873 5.14451 65.5553 4.09005C65.2698 3.17282 64.7022 2.81531 63.8956 2.81531Z" fill="#BCBFDB"/>
<path fill-rule="evenodd" clip-rule="evenodd" d="M63.8741 0.125C67.6399 0.125 69.678 3.3967 69.678 7.55675C69.678 11.576 67.4257 14.7646 63.8741 14.7646C60.1762 14.7646 58.1631 11.4929 58.1631 7.41592C58.1631 3.31365 60.2012 0.125 63.8741 0.125ZM63.8956 2.81531C62.0252 2.81531 61.9074 5.39367 61.9074 7.00063C61.9074 8.6112 61.8824 12.049 63.8741 12.049C65.8409 12.049 65.9337 9.27566 65.9337 7.58564C65.9337 6.47341 65.8873 5.14451 65.5553 4.09005C65.2698 3.17282 64.7022 2.81531 63.8956 2.81531Z" fill="black" fill-opacity="0.4"/>
<path fill-rule="evenodd" clip-rule="evenodd" d="M74.5618 14.4902H72.0347C71.7812 14.4721 71.5778 14.2663 71.5778 14.0135L71.5742 0.832784C71.5956 0.590837 71.8062 0.403064 72.0632 0.403064H74.4155C74.6368 0.413891 74.8188 0.56556 74.8688 0.771395V2.78642H74.9152C75.6255 0.984458 76.6214 0.125 78.3739 0.125C79.5126 0.125 80.6227 0.540285 81.3365 1.6778C82.0005 2.73225 82.0005 4.50533 82.0005 5.78007V14.0749C81.9719 14.306 81.7613 14.4902 81.5115 14.4902H78.9665C78.7344 14.4721 78.5417 14.2988 78.5167 14.0749V6.91758C78.5167 5.47673 78.6809 3.36781 76.9283 3.36781C76.3108 3.36781 75.7433 3.78671 75.4613 4.42227C75.1044 5.22756 75.058 6.02924 75.058 6.91758V14.0135C75.0544 14.2771 74.8331 14.4902 74.5618 14.4902Z" fill="#BCBFDB"/>
<path fill-rule="evenodd" clip-rule="evenodd" d="M74.5618 14.4902H72.0347C71.7812 14.4721 71.5778 14.2663 71.5778 14.0135L71.5742 0.832784C71.5956 0.590837 71.8062 0.403064 72.0632 0.403064H74.4155C74.6368 0.413891 74.8188 0.56556 74.8688 0.771395V2.78642H74.9152C75.6255 0.984458 76.6214 0.125 78.3739 0.125C79.5126 0.125 80.6227 0.540285 81.3365 1.6778C82.0005 2.73225 82.0005 4.50533 82.0005 5.78007V14.0749C81.9719 14.306 81.7613 14.4902 81.5115 14.4902H78.9665C78.7344 14.4721 78.5417 14.2988 78.5167 14.0749V6.91758C78.5167 5.47673 78.6809 3.36781 76.9283 3.36781C76.3108 3.36781 75.7433 3.78671 75.4613 4.42227C75.1044 5.22756 75.058 6.02924 75.058 6.91758V14.0135C75.0544 14.2771 74.8331 14.4902 74.5618 14.4902Z" fill="black" fill-opacity="0.4"/>
<path fill-rule="evenodd" clip-rule="evenodd" d="M40.7485 8.19732C40.7485 9.19761 40.7735 10.0318 40.2738 10.9201C39.8705 11.6424 39.228 12.0865 38.5177 12.0865C37.5432 12.0865 36.9721 11.3354 36.9721 10.2268C36.9721 8.03843 38.9103 7.6412 40.7485 7.6412V8.19732ZM43.3078 14.4554C43.14 14.6071 42.8973 14.6179 42.7081 14.5168C41.8658 13.809 41.7123 13.4804 41.2518 12.8051C39.8598 14.2424 38.871 14.6721 37.0685 14.6721C34.9304 14.6721 33.2706 13.3396 33.2706 10.671C33.2706 8.58732 34.3843 7.16814 35.9762 6.4748C37.354 5.8609 39.2779 5.75256 40.7485 5.58284V5.25062C40.7485 4.64033 40.7949 3.9181 40.438 3.39088C40.131 2.91782 39.5385 2.72281 39.0138 2.72281C38.0465 2.72281 37.1863 3.22476 36.9757 4.26477C36.9328 4.49589 36.7651 4.72339 36.5331 4.73422L34.0737 4.46699C33.8667 4.42005 33.6347 4.25033 33.6954 3.92894C34.2594 0.910019 36.9578 0 39.3707 0C40.6058 0 42.2191 0.332226 43.1936 1.27835C44.4286 2.44475 44.3108 4.00116 44.3108 5.69479V9.69595C44.3108 10.8985 44.8034 11.4257 45.2674 12.0757C45.428 12.3068 45.4637 12.5849 45.2567 12.7582C44.7391 13.1952 43.8182 14.0077 43.3114 14.4627L43.3078 14.4554Z" fill="#BCBFDB"/>
<path fill-rule="evenodd" clip-rule="evenodd" d="M40.7485 8.19732C40.7485 9.19761 40.7735 10.0318 40.2738 10.9201C39.8705 11.6424 39.228 12.0865 38.5177 12.0865C37.5432 12.0865 36.9721 11.3354 36.9721 10.2268C36.9721 8.03843 38.9103 7.6412 40.7485 7.6412V8.19732ZM43.3078 14.4554C43.14 14.6071 42.8973 14.6179 42.7081 14.5168C41.8658 13.809 41.7123 13.4804 41.2518 12.8051C39.8598 14.2424 38.871 14.6721 37.0685 14.6721C34.9304 14.6721 33.2706 13.3396 33.2706 10.671C33.2706 8.58732 34.3843 7.16814 35.9762 6.4748C37.354 5.8609 39.2779 5.75256 40.7485 5.58284V5.25062C40.7485 4.64033 40.7949 3.9181 40.438 3.39088C40.131 2.91782 39.5385 2.72281 39.0138 2.72281C38.0465 2.72281 37.1863 3.22476 36.9757 4.26477C36.9328 4.49589 36.7651 4.72339 36.5331 4.73422L34.0737 4.46699C33.8667 4.42005 33.6347 4.25033 33.6954 3.92894C34.2594 0.910019 36.9578 0 39.3707 0C40.6058 0 42.2191 0.332226 43.1936 1.27835C44.4286 2.44475 44.3108 4.00116 44.3108 5.69479V9.69595C44.3108 10.8985 44.8034 11.4257 45.2674 12.0757C45.428 12.3068 45.4637 12.5849 45.2567 12.7582C44.7391 13.1952 43.8182 14.0077 43.3114 14.4627L43.3078 14.4554Z" fill="black" fill-opacity="0.4"/>
<path fill-rule="evenodd" clip-rule="evenodd" d="M7.47791 8.19732C7.47791 9.19761 7.50289 10.0318 7.00318 10.9201C6.59983 11.6424 5.96091 12.0865 5.24703 12.0865C4.27258 12.0865 3.70504 11.3354 3.70504 10.2268C3.70504 8.03843 5.64323 7.6412 7.47791 7.6412V8.19732ZM10.0372 14.4554C9.86941 14.6071 9.62669 14.6179 9.43751 14.5168C8.59513 13.809 8.44522 13.4804 7.98119 12.8051C6.58912 14.2424 5.60397 14.6721 3.79785 14.6721C1.66334 14.6721 0 13.3396 0 10.671C0 8.58732 1.11722 7.16814 2.70561 6.4748C4.0834 5.8609 6.00731 5.75256 7.47791 5.58284V5.25062C7.47791 4.64033 7.52431 3.9181 7.17094 3.39088C6.8604 2.91782 6.26788 2.72281 5.74674 2.72281C4.77944 2.72281 3.91564 3.22476 3.70504 4.26477C3.66221 4.49589 3.49445 4.72339 3.26601 4.73422L0.803117 4.46699C0.59609 4.42005 0.367648 4.25033 0.424758 3.92894C0.992295 0.910019 3.6872 0 6.10012 0C7.33513 0 8.9485 0.332226 9.92295 1.27835C11.158 2.44475 11.0402 4.00116 11.0402 5.69479V9.69595C11.0402 10.8985 11.5328 11.4257 11.9968 12.0757C12.161 12.3068 12.1967 12.5849 11.9896 12.7582C11.4721 13.1952 10.5512 14.0077 10.0443 14.4627L10.0372 14.4554Z" fill="#BCBFDB"/>
<path fill-rule="evenodd" clip-rule="evenodd" d="M7.47791 8.19732C7.47791 9.19761 7.50289 10.0318 7.00318 10.9201C6.59983 11.6424 5.96091 12.0865 5.24703 12.0865C4.27258 12.0865 3.70504 11.3354 3.70504 10.2268C3.70504 8.03843 5.64323 7.6412 7.47791 7.6412V8.19732ZM10.0372 14.4554C9.86941 14.6071 9.62669 14.6179 9.43751 14.5168C8.59513 13.809 8.44522 13.4804 7.98119 12.8051C6.58912 14.2424 5.60397 14.6721 3.79785 14.6721C1.66334 14.6721 0 13.3396 0 10.671C0 8.58732 1.11722 7.16814 2.70561 6.4748C4.0834 5.8609 6.00731 5.75256 7.47791 5.58284V5.25062C7.47791 4.64033 7.52431 3.9181 7.17094 3.39088C6.8604 2.91782 6.26788 2.72281 5.74674 2.72281C4.77944 2.72281 3.91564 3.22476 3.70504 4.26477C3.66221 4.49589 3.49445 4.72339 3.26601 4.73422L0.803117 4.46699C0.59609 4.42005 0.367648 4.25033 0.424758 3.92894C0.992295 0.910019 3.6872 0 6.10012 0C7.33513 0 8.9485 0.332226 9.92295 1.27835C11.158 2.44475 11.0402 4.00116 11.0402 5.69479V9.69595C11.0402 10.8985 11.5328 11.4257 11.9968 12.0757C12.161 12.3068 12.1967 12.5849 11.9896 12.7582C11.4721 13.1952 10.5512 14.0077 10.0443 14.4627L10.0372 14.4554Z" fill="black" fill-opacity="0.4"/>
</g>
<defs>
<clipPath id="clip0_1509_29020">
<rect width="82" height="25" fill="white"/>
</clipPath>
</defs>
</svg>

<svg xmlns="http://www.w3.org/2000/svg" width="82" height="25" fill="none" viewBox="0 0 82 25"><g fill-rule="evenodd" clip-path="url(#a)" clip-rule="evenodd"><path fill="#bcbfdb" d="M50.872 19.55c-4.766 3.553-11.672 5.449-17.619 5.449-8.338 0-15.845-3.12-21.524-8.31-.446-.407-.046-.963.49-.646 6.128 3.608 13.706 5.778 21.534 5.778 5.279 0 11.086-1.105 16.426-3.398.807-.347 1.481.535.693 1.127"/><path fill="#000" fill-opacity=".4" d="M50.872 19.55c-4.766 3.553-11.672 5.449-17.619 5.449-8.338 0-15.845-3.12-21.524-8.31-.446-.407-.046-.963.49-.646 6.128 3.608 13.706 5.778 21.534 5.778 5.279 0 11.086-1.105 16.426-3.398.807-.347 1.481.535.693 1.127"/><path fill="#bcbfdb" d="M52.853 17.257c-.607-.788-4.027-.372-5.562-.188-.467.058-.538-.354-.117-.65 2.723-1.94 7.192-1.38 7.713-.73.521.654-.136 5.186-2.695 7.349-.392.332-.767.155-.592-.285.574-1.452 1.863-4.706 1.253-5.497"/><path fill="#000" fill-opacity=".4" d="M52.853 17.257c-.607-.788-4.027-.372-5.562-.188-.467.058-.538-.354-.117-.65 2.723-1.94 7.192-1.38 7.713-.73.521.654-.136 5.186-2.695 7.349-.392.332-.767.155-.592-.285.574-1.452 1.863-4.706 1.253-5.497"/><path fill="#bcbfdb" d="M47.399 2.729V.844c0-.285.214-.477.47-.477h8.342c.268 0 .482.195.482.477v1.614c-.003.27-.228.625-.628 1.185l-4.322 6.243c1.606-.04 3.301.202 4.758 1.033.328.188.417.462.442.733v2.012c0 .274-.3.595-.614.43-2.566-1.362-5.975-1.51-8.813.014-.289.159-.592-.16-.592-.434v-1.91c0-.307.003-.83.307-1.296l5.008-7.266H47.88a.464.464 0 0 1-.481-.473"/><path fill="#000" fill-opacity=".4" d="M47.399 2.729V.844c0-.285.214-.477.47-.477h8.342c.268 0 .482.195.482.477v1.614c-.003.27-.228.625-.628 1.185l-4.322 6.243c1.606-.04 3.301.202 4.758 1.033.328.188.417.462.442.733v2.012c0 .274-.3.595-.614.43-2.566-1.362-5.975-1.51-8.813.014-.289.159-.592-.16-.592-.434v-1.91c0-.307.003-.83.307-1.296l5.008-7.266H47.88a.464.464 0 0 1-.481-.473"/><path fill="#bcbfdb" d="M16.969 14.49H14.43a.48.48 0 0 1-.453-.437V.876c0-.263.217-.473.489-.473h2.366a.48.48 0 0 1 .46.44v1.723h.047C17.957.901 19.117.125 20.68.125c1.59 0 2.582.776 3.295 2.441C24.59.901 25.985.125 27.481.125c1.063 0 2.227.444 2.937 1.44.803 1.11.64 2.72.64 4.132l-.004 8.317a.48.48 0 0 1-.49.476H28.03a.486.486 0 0 1-.457-.476V7.03c0-.557.05-1.943-.071-2.47-.19-.885-.757-1.134-1.492-1.134-.614 0-1.256.415-1.517 1.08-.26.664-.236 1.776-.236 2.524v6.984a.48.48 0 0 1-.489.476h-2.534a.483.483 0 0 1-.457-.476l-.003-6.984c0-1.47.239-3.633-1.564-3.633-1.824 0-1.752 2.109-1.752 3.633v6.984a.48.48 0 0 1-.49.476"/><path fill="#000" fill-opacity=".4" d="M16.969 14.49H14.43a.48.48 0 0 1-.453-.437V.876c0-.263.217-.473.489-.473h2.366a.48.48 0 0 1 .46.44v1.723h.047C17.957.901 19.117.125 20.68.125c1.59 0 2.582.776 3.295 2.441C24.59.901 25.985.125 27.481.125c1.063 0 2.227.444 2.937 1.44.803 1.11.64 2.72.64 4.132l-.004 8.317a.48.48 0 0 1-.49.476H28.03a.486.486 0 0 1-.457-.476V7.03c0-.557.05-1.943-.071-2.47-.19-.885-.757-1.134-1.492-1.134-.614 0-1.256.415-1.517 1.08-.26.664-.236 1.776-.236 2.524v6.984a.48.48 0 0 1-.489.476h-2.534a.483.483 0 0 1-.457-.476l-.003-6.984c0-1.47.239-3.633-1.564-3.633-1.824 0-1.752 2.109-1.752 3.633v6.984a.48.48 0 0 1-.49.476"/><path fill="#bcbfdb" d="M63.874.125c3.766 0 5.804 3.272 5.804 7.432 0 4.019-2.252 7.208-5.804 7.208-3.698 0-5.71-3.272-5.71-7.35 0-4.101 2.037-7.29 5.71-7.29m.022 2.69c-1.87 0-1.989 2.579-1.989 4.186 0 1.61-.025 5.048 1.967 5.048 1.967 0 2.06-2.773 2.06-4.463 0-1.113-.047-2.441-.379-3.496-.285-.917-.853-1.275-1.66-1.275"/><path fill="#000" fill-opacity=".4" d="M63.874.125c3.766 0 5.804 3.272 5.804 7.432 0 4.019-2.252 7.208-5.804 7.208-3.698 0-5.71-3.272-5.71-7.35 0-4.101 2.037-7.29 5.71-7.29m.022 2.69c-1.87 0-1.989 2.579-1.989 4.186 0 1.61-.025 5.048 1.967 5.048 1.967 0 2.06-2.773 2.06-4.463 0-1.113-.047-2.441-.379-3.496-.285-.917-.853-1.275-1.66-1.275"/><path fill="#bcbfdb" d="M74.562 14.49h-2.527a.486.486 0 0 1-.457-.476L71.574.833a.48.48 0 0 1 .49-.43h2.352c.22.01.403.163.453.368v2.015h.046C75.625.984 76.621.125 78.374.125c1.139 0 2.249.415 2.963 1.553C82 2.732 82 4.505 82 5.78v8.295a.49.49 0 0 1-.489.415h-2.544a.48.48 0 0 1-.45-.415V6.918c0-1.441.164-3.55-1.589-3.55-.617 0-1.185.419-1.467 1.054-.357.806-.403 1.607-.403 2.496v7.096a.49.49 0 0 1-.496.476"/><path fill="#000" fill-opacity=".4" d="M74.562 14.49h-2.527a.486.486 0 0 1-.457-.476L71.574.833a.48.48 0 0 1 .49-.43h2.352c.22.01.403.163.453.368v2.015h.046C75.625.984 76.621.125 78.374.125c1.139 0 2.249.415 2.963 1.553C82 2.732 82 4.505 82 5.78v8.295a.49.49 0 0 1-.489.415h-2.544a.48.48 0 0 1-.45-.415V6.918c0-1.441.164-3.55-1.589-3.55-.617 0-1.185.419-1.467 1.054-.357.806-.403 1.607-.403 2.496v7.096a.49.49 0 0 1-.496.476"/><path fill="#bcbfdb" d="M40.749 8.197c0 1 .024 1.835-.475 2.723-.404.722-1.046 1.166-1.756 1.166-.975 0-1.546-.75-1.546-1.86 0-2.188 1.938-2.585 3.776-2.585zm2.559 6.258a.525.525 0 0 1-.6.062c-.842-.708-.996-1.037-1.456-1.712-1.392 1.437-2.381 1.867-4.184 1.867-2.138 0-3.797-1.332-3.797-4.001 0-2.084 1.113-3.503 2.705-4.196 1.378-.614 3.302-.722 4.773-.892V5.25c0-.61.046-1.333-.311-1.86-.307-.473-.9-.668-1.424-.668-.968 0-1.828.502-2.038 1.542-.043.23-.21.458-.443.47l-2.46-.268c-.206-.047-.438-.217-.378-.538C34.26.91 36.958 0 39.371 0c1.235 0 2.848.332 3.823 1.278 1.235 1.167 1.117 2.723 1.117 4.417v4c0 1.204.492 1.73.956 2.38.161.232.197.51-.01.683-.518.437-1.439 1.25-1.946 1.705z"/><path fill="#000" fill-opacity=".4" d="M40.749 8.197c0 1 .024 1.835-.475 2.723-.404.722-1.046 1.166-1.756 1.166-.975 0-1.546-.75-1.546-1.86 0-2.188 1.938-2.585 3.776-2.585zm2.559 6.258a.525.525 0 0 1-.6.062c-.842-.708-.996-1.037-1.456-1.712-1.392 1.437-2.381 1.867-4.184 1.867-2.138 0-3.797-1.332-3.797-4.001 0-2.084 1.113-3.503 2.705-4.196 1.378-.614 3.302-.722 4.773-.892V5.25c0-.61.046-1.333-.311-1.86-.307-.473-.9-.668-1.424-.668-.968 0-1.828.502-2.038 1.542-.043.23-.21.458-.443.47l-2.46-.268c-.206-.047-.438-.217-.378-.538C34.26.91 36.958 0 39.371 0c1.235 0 2.848.332 3.823 1.278 1.235 1.167 1.117 2.723 1.117 4.417v4c0 1.204.492 1.73.956 2.38.161.232.197.51-.01.683-.518.437-1.439 1.25-1.946 1.705z"/><path fill="#bcbfdb" d="M7.478 8.197c0 1 .025 1.835-.475 2.723-.403.722-1.042 1.166-1.756 1.166-.974 0-1.542-.75-1.542-1.86 0-2.188 1.938-2.585 3.773-2.585zm2.56 6.258a.525.525 0 0 1-.6.062c-.843-.708-.993-1.037-1.457-1.712-1.392 1.437-2.377 1.867-4.183 1.867C1.663 14.672 0 13.34 0 10.671c0-2.084 1.117-3.503 2.706-4.196 1.377-.614 3.301-.722 4.772-.892V5.25c0-.61.046-1.333-.307-1.86-.31-.473-.903-.668-1.424-.668-.968 0-1.831.502-2.042 1.542-.043.23-.21.458-.439.47L.803 4.466C.596 4.42.368 4.25.425 3.929.992.91 3.687 0 6.1 0c1.235 0 2.848.332 3.823 1.278 1.235 1.167 1.117 2.723 1.117 4.417v4c0 1.204.493 1.73.957 2.38.164.232.2.51-.007.683a109 109 0 0 0-1.946 1.705z"/><path fill="#000" fill-opacity=".4" d="M7.478 8.197c0 1 .025 1.835-.475 2.723-.403.722-1.042 1.166-1.756 1.166-.974 0-1.542-.75-1.542-1.86 0-2.188 1.938-2.585 3.773-2.585zm2.56 6.258a.525.525 0 0 1-.6.062c-.843-.708-.993-1.037-1.457-1.712-1.392 1.437-2.377 1.867-4.183 1.867C1.663 14.672 0 13.34 0 10.671c0-2.084 1.117-3.503 2.706-4.196 1.377-.614 3.301-.722 4.772-.892V5.25c0-.61.046-1.333-.307-1.86-.31-.473-.903-.668-1.424-.668-.968 0-1.831.502-2.042 1.542-.043.23-.21.458-.439.47L.803 4.466C.596 4.42.368 4.25.425 3.929.992.91 3.687 0 6.1 0c1.235 0 2.848.332 3.823 1.278 1.235 1.167 1.117 2.723 1.117 4.417v4c0 1.204.493 1.73.957 2.38.164.232.2.51-.007.683a109 109 0 0 0-1.946 1.705z"/></g><defs><clipPath id="a"><path fill="#fff" d="M0 0h82v25H0z"/></clipPath></defs></svg>
